packages/katcn/src/icons/svg/signIn-solid.svg

<svg width="24" height="24" viewBox="0 0 24 24" fill="none" xmlns="http://www.w3.org/2000/svg">
<path d="M9.48 1.02571L4.42 2.01228C2.99 2.23151 2 3.54693 2 4.97197V19.0031C2 20.4282 2.99 21.7436 4.42 21.9628L9.48 22.9494C11.24 23.2782 12.78 21.9628 13 20.2089V19.8801V4.09503V3.76617C12.78 2.01228 11.24 0.806474 9.48 1.02571Z" fill="black"/>
<path d="M18.8979 4H15V20H18.8979C20.6176 20 21.9933 18.6133 21.9933 17.0133V6.98667C22.108 5.28 20.7322 4 18.8979 4Z" fill="black"/>
<path d="M9.23527 13.9908C8.57167 13.9908 8.12927 13.5484 8.12927 12.8848V11.1152C8.12927 10.4516 8.57167 10.0092 9.23527 10.0092C9.89887 10.0092 10.3413 10.4516 10.3413 11.1152V12.9954C10.3413 13.5484 9.89887 13.9908 9.23527 13.9908Z" fill="white"/>
</svg>

<svg xmlns="http://www.w3.org/2000/svg" fill="none" viewBox="0 0 24 24"><path fill="#000" d="m9.48 1.026-5.06.986C2.99 2.232 2 3.547 2 4.972v14.031c0 1.425.99 2.74 2.42 2.96l5.06.986c1.76.33 3.3-.986 3.52-2.74V3.766c-.22-1.754-1.76-2.96-3.52-2.74M18.898 4H15v16h3.898c1.72 0 3.095-1.387 3.095-2.987V6.987C22.108 5.28 20.733 4 18.898 4"/><path fill="#fff" d="M9.235 13.99c-.663 0-1.106-.442-1.106-1.105v-1.77c0-.663.443-1.106 1.106-1.106.664 0 1.106.443 1.106 1.106v1.88c0 .553-.442.996-1.106.996"/></svg>
